src/assets/tiles/type4.svg

<?xml version="1.0" encoding="UTF-8"?>
<!DOCTYPE svg PUBLIC "-//W3C//DTD SVG 1.1//EN" "http://www.w3.org/Graphics/SVG/1.1/DTD/svg11.dtd">
<!-- Creator: CorelDRAW -->
<svg xmlns="http://www.w3.org/2000/svg" xml:space="preserve" width="25mm" height="25mm" style="shape-rendering:geometricPrecision; text-rendering:geometricPrecision; image-rendering:optimizeQuality; fill-rule:evenodd; clip-rule:evenodd"
viewBox="0 0 1.02267 1.02267"
 xmlns:xlink="http://www.w3.org/1999/xlink">
 <defs>
  <style type="text/css">
   <![CDATA[
    .fil2 {fill:navy}
    .fil0 {fill:gray}
    .fil1 {fill:#c6c6c6}
   ]]>
  </style>
 </defs>
 <g id="Layer_x0020_1">
  <metadata id="CorelCorpID_0Corel-Layer"/>
  <rect class="fil0" width="1.02267" height="1.02267"/>
  <rect class="fil1" x="0.0624297" y="0.0624297" width="0.960242" height="0.960242"/>
  <path class="fil2" d="M0.607922 0.213939l0.185145 0 0 0.256814 0.0403138 0c0.0101736,0 0.0253827,0.00434841 0.0253827,0.024941 0,0.0205925 0,0.0659992 0,0.0721107 0,0.0061115 0.00449567,0.0290112 -0.0223965,0.0298621 -0.0268922,0.000850864 -0.0433,0.0014931 -0.0433,0.0014931l0 0.252334 -0.18962 0 0 -0.255317 -0.291928 0c-0.0648661,0 -0.131041,0.0131516 -0.0777927,-0.0908216l0.0952559 -0.229557c0.0117812,-0.0381253 0.0387266,-0.0610822 0.0878354,-0.0618595l0.117943 0 -0.103024 0.256814 0.170214 0 0.00597241 -0.256814z"/>
 </g>
</svg>

<svg xmlns="http://www.w3.org/2000/svg" xml:space="preserve" width="25mm" height="25mm" style="shape-rendering:geometricPrecision;text-rendering:geometricPrecision;image-rendering:optimizeQuality;fill-rule:evenodd;clip-rule:evenodd" viewBox="0 0 1.023 1.023"><path style="fill:gray" d="M0 0h1.023v1.023H0z"/><path style="fill:#c6c6c6" d="M.062.062h.96v.96h-.96z"/><path d="M.608.214h.185V.47h.04C.843.47.86.475.86.496v.072c0 .006.004.029-.023.03L.793.599v.252h-.19V.596H.312C.247.596.18.61.234.506l.095-.23C.341.238.368.215.417.214h.118L.432.47h.17L.608.214z" style="fill:navy"/></svg>
